X:1
T:Title
%%score { ( 1 3 ) | ( 2 4 ) }
L:1/8
Q:1/4=100
M:4/4
K:Bb
V:1 treble nm="Grand Piano"
V:3 treble 
V:2 bass 
V:4 bass 
V:1
 [DF]>[_D=E] [=DF]>[_EG] [DF]2 [DB]2 | [Fd]>[=E_d] [F=d]>[Ge] [Fd]4 | d>c c>=B c2 d2 | B4 z4 | %4
w: Herbert~G.~Tovey * * * * *||||
 [DF]>[_D=E] [=DF]>[_EG] [DF]2 [DB]2 | [Fd]>[=E_d] [F=d]>[Ge] [Fd]4 | %6
w: ||
 [Fc]>[Fc] [Fc]>[Fc] [Bd]2 [B=e]2 | [Af]4 [EF]4 | [DF]>[_D=E] [=DF]>[_EG] [DF]2 [Fd]2 | c6 z2 | %10
w: ||||
 F>F F>G F2 c2 | B6 z2 | [Fd]>[Fd] [Fd]>[Ec] [DB]2 [^FA]2 |[M:9/8] z3 z B2 z3 | %14
w: ||||
[M:4/4] d>d d>[FB] c2 c2 | B6 z2 |] %16
w: ||
V:2
 [B,,B,]>[B,,B,] [B,,B,]>[B,,B,] [B,,B,]2 [B,,F,]2 | [B,,B,]>[B,,B,] [B,,B,]>[B,,B,] [B,,B,]4 | %2
 [F,B,F]>[F,A,E] [F,A,E]>[F,_A,D] [F,=A,E]2 [F,A,F]2 | F,4 z4 | %4
 [B,,B,]>[B,,B,] [B,,B,]>[B,,B,] [B,,B,]2 [B,,F,]2 | [B,,B,]>[B,,B,] [B,,B,]>[B,,B,] [B,,B,]4 | %6
 [C,A,]>[C,A,] [C,A,]>[C,A,] [C,C]2 [C,C]2 | C4 A,4 | %8
 [B,,B,]>[B,,B,] [B,,B,]>[B,,B,] [B,,B,]2 [B,,B,]2 | [F,A,F]2 [G,B,]2 [F,A,]2 z2 | %10
 [F,A,E]>[F,A,E] [F,A,E]>[F,A,E] [F,A,E]2 [F,A,E]2 | z2 G,2 F,2 z2 | %12
 [B,,B,]>[B,,B,] [B,,B,]>[B,,B,] [B,,B,]2 [D,C]2 | %13
[M:9/8] [E,B,]>[E,B,E][E,B,E]- [E,B,E]/[E,C]/ [D,B,]2 [F,A,]3 | %14
[M:4/4][K:treble] [B,F]>[B,F] [B,F]>[K:bass][D,B,] [F,A,E]2 [F,E]2 | F,2 G,2 F,2 z2 |] %16
V:3
 x8 | x8 | x8 | D4- [B,DF]4 | x8 | x8 | x8 | x8 | x8 | z2 =E2 _E2 z2 | x8 | [B,D]2 E2 D2 z2 | x8 | %13
[M:9/8] G>GG- G/[FA]/ F2- [Fc]3 |[M:4/4] x8 | D2 E2 D2 z2 |] %16
V:4
 x8 | x8 | x8 | B,,8 | x8 | x8 | x8 | F,8 | x8 | x8 | x8 | B,,6 z2 | x8 |[M:9/8] x9 | %14
[M:4/4][K:treble] x7/2[K:bass] x9/2 | B,,6 z2 |] %16

